X: 19
T:The Hurler's March
% Nottingham Music Database
S:Kevin Briggs, via EF
M:2/4
L:1/4
K:D
(A/4G/4)|F/2A/2 A/4B/4A/4F/4|G/2B/2 B/4c/4B/4G/4|F/2A/2 e/4f/4e/4d/4|\
c/2A/2 A/4B/4A/4G/4|
F/2A/2 A/4B/4A/4F/4|G/2B/2 B/2(3A/4B/4c/4|d/4e/4d/4c/4 A/4B/4A/4G/4|F/2D/2 D/2\
:|
(d/4e/4)|f/2d/2 f/2d/2|f/4d/4f/4g/4 a/2a/2|e/4c/4A/4c/4 e/4c/4A/4c/4|\
e/2f/2 g/2a/4g/4|
f/2d/2 f/2d/2|f/4d/4f/4g/4 a/2a/2|d/4e/4d/4c/4 A/4B/4A/4G/4|F/2D/2 D/2:|<end>
<start>
